images/home/configurations/7.svg

<svg height="45pt" viewBox="0 0 45 45" width="45pt" xmlns="http://www.w3.org/2000/svg"><g fill="#800080" fill-rule="evenodd"><path d="m4.171875 22 17.535156-10.125v20.25zm0 0"/><path d="m40.414062 22-17.539062-10.125v20.25zm0 0"/><path d="m21.125 10.863281-17.539062-10.125v20.25zm0 0"/><path d="m21.125 33.136719-17.539062-10.125v20.25zm0 0"/></g></svg>

<?xml version="1.0" encoding="UTF-8"?>
<svg xmlns="http://www.w3.org/2000/svg" xmlns:xlink="http://www.w3.org/1999/xlink" width="45pt" height="45pt" viewBox="0 0 45 45" version="1.1">
<g id="surface77">
<path style=" stroke:none;fill-rule:evenodd;fill:rgb(50.000763%,0%,50.000763%);fill-opacity:1;" d="M 4.171875 22 L 21.707031 11.875 L 21.707031 32.125 Z M 4.171875 22 "/>
<path style=" stroke:none;fill-rule:evenodd;fill:rgb(50.000763%,0%,50.000763%);fill-opacity:1;" d="M 40.414062 22 L 22.875 11.875 L 22.875 32.125 Z M 40.414062 22 "/>
<path style=" stroke:none;fill-rule:evenodd;fill:rgb(50.000763%,0%,50.000763%);fill-opacity:1;" d="M 21.125 10.863281 L 3.585938 0.738281 L 3.585938 20.988281 Z M 21.125 10.863281 "/>
<path style=" stroke:none;fill-rule:evenodd;fill:rgb(50.000763%,0%,50.000763%);fill-opacity:1;" d="M 21.125 33.136719 L 3.585938 23.011719 L 3.585938 43.261719 Z M 21.125 33.136719 "/>
</g>
</svg>
